images/icons/Iconmen.svg

<svg width="14" height="14" viewBox="0 0 14 14" fill="none" xmlns="http://www.w3.org/2000/svg">
<path d="M7 0.125C5.27411 0.125 3.875 1.52411 3.875 3.25C3.875 4.97589 5.27411 6.375 7 6.375C8.72589 6.375 10.125 4.97589 10.125 3.25C10.125 1.52411 8.72589 0.125 7 0.125Z" fill="black"/>
<path d="M3.66666 8.04167C1.94077 8.04167 0.541664 9.44078 0.541664 11.1667V12.1569C0.541664 12.7846 0.996567 13.3198 1.61606 13.4209C5.18175 14.0031 8.81825 14.0031 12.3839 13.4209C13.0034 13.3198 13.4583 12.7846 13.4583 12.1569V11.1667C13.4583 9.44078 12.0592 8.04167 10.3333 8.04167H10.0493C9.89553 8.04167 9.74275 8.06598 9.5966 8.1137L8.87534 8.34921C7.65677 8.74712 6.34322 8.74712 5.12465 8.34921L4.40339 8.1137C4.25724 8.06598 4.10447 8.04167 3.95072 8.04167H3.66666Z" fill="black"/>
</svg>

<svg width="14" height="14" fill="none" xmlns="http://www.w3.org/2000/svg"><path d="M7 .125a3.125 3.125 0 1 0 0 6.25 3.125 3.125 0 0 0 0-6.25ZM3.667 8.042a3.125 3.125 0 0 0-3.125 3.125v.99a1.28 1.28 0 0 0 1.074 1.264 33.41 33.41 0 0 0 10.768 0 1.28 1.28 0 0 0 1.074-1.264v-.99c0-1.726-1.399-3.125-3.125-3.125h-.284c-.153 0-.306.024-.452.072l-.722.235a6.042 6.042 0 0 1-3.75 0l-.722-.235a1.458 1.458 0 0 0-.452-.072h-.284Z" fill="#000"/></svg>
